icons/dark/jpg.svg

<svg width="16" height="16" viewBox="0 0 16 16" fill="none" xmlns="http://www.w3.org/2000/svg">
<path d="M12.6667 2H3.33333C2.6 2 2 2.6 2 3.33333V12.6667C2 13.4 2.6 14 3.33333 14H12.6667C13.4 14 14 13.4 14 12.6667V3.33333C14 2.6 13.4 2 12.6667 2ZM6 9C6 9.73333 5.4 10 4.66667 10C3.93333 10 3.33333 9.73333 3.33333 9V8H4.33333V9H5V6H6V9ZM9.33333 7.66667C9.33333 8.2 8.86667 8.66667 8.33333 8.66667H7.66667V10H6.66667V6H8.33333C8.86667 6 9.33333 6.46667 9.33333 7V7.66667ZM12.6667 7H11V9H11.6667V8H12.6667V9.13333C12.6667 9.6 12.3333 10 11.8 10H10.9333C10.4 10 10.0667 9.53333 10.0667 9.13333V6.93333C10 6.46667 10.3333 6 10.8667 6H11.7333C12.2667 6 12.6 6.46667 12.6 6.86667V7M7.66667 7H8.33333V7.66667H7.66667V7Z" fill="#C5C5C5"/>
</svg>

<svg xmlns="http://www.w3.org/2000/svg" width="16" height="16" fill="none" xmlns:v="https://vecta.io/nano"><path d="M12.667 2H3.333A1.34 1.34 0 0 0 2 3.333v9.333A1.34 1.34 0 0 0 3.333 14h9.333A1.34 1.34 0 0 0 14 12.667V3.333A1.34 1.34 0 0 0 12.667 2zM6 9c0 .733-.6 1-1.333 1s-1.333-.267-1.333-1V8h1v1H5V6h1v3zm3.333-1.333c0 .533-.467 1-1 1h-.667V10h-1V6h1.667c.533 0 1 .467 1 1v.667zM12.667 7H11v2h.667V8h1v1.133c0 .467-.333.867-.867.867h-.867c-.533 0-.867-.467-.867-.867v-2.2c-.067-.467.267-.933.8-.933h.867c.533 0 .867.467.867.867V7M7.667 7h.667v.667h-.667V7z" fill="#c5c5c5"/></svg>
